X:1
T:What a Friend We Have In Jesus
M:4/4
L:1/4
K:C
 G3 E| A G E D| C4| A,4| G,3 C| E C G E| D4-| D4| G3 E| A G E D| C4|\
 A,4| G,3 C| E D C B,| C4-| C4| D3 E| F E F D| E4| G4| A3 A| G E F E|\
 D4-| D4| G3 E| A G E D| C4| A,4| G,3 C| E D C B,| C4-| C4|
